!!!OTL: GESUND UND FROHEN MUTHES
!!!ARE: Europa, Mitteleuropa, Deutschland
!!!SCT: B0323
!!!YEM: Copyright 1995, estate of Helmut Schaffrath.
**kern
*ICvox
*Ivox
*M4/4
*k[f#c#]
*D:
{4D
=1
4.A
8A
4A
4A
=2
2B
4A}
{4d
=3
4.d
8F#
4F#
4F#
=4
2A
4F#}
{4E
=5
4F#
4G#
4A
4c#
=6
2d
2B
=7
2A
4r}
{4A
=8
4.A
8A
4c#
4c#
=9
2e
4c#}
{4A
=10
4.A
8A
4d
4d
=11
2f#
4d}
{4A
=12
4.A
8A
4e
4e
=13
2g
2e
=14
2d
4r}
==
!!!AGN: Trink -, Tafel - Lied, religioes
!!!ONB: ESAC (Essen Associative Code) Database: BOEHME
!!!AMT: simple quadruple
!!!AIN: vox
!!!EED: Helmut Schaffrath
!!!EEV: 1.0
*-
